images/ISH.svg

<svg height="250" viewBox="0 0 250 250" width="250" xmlns="http://www.w3.org/2000/svg" xmlns:xlink="http://www.w3.org/1999/xlink"><linearGradient id="a" gradientUnits="userSpaceOnUse" x1="-46.875072" x2="250.01746068639" y1="-39.06256" y2="249.9808485696"><stop offset="0" stop-color="#7b8e56"/><stop offset="1" stop-color="#bcc7a4"/></linearGradient><path d="m0 0h250v250h-250z" fill="url(#a)"/><g fill="#fff"><path d="m97.625 136.015625c5.125 0 9.285156-13.070313 9.285156-29.191406 0-16.125-4.160156-29.191407-9.285156-29.191407-5.128906 0-9.289062 13.066407-9.289062 29.191407 0 16.121093 4.160156 29.191406 9.289062 29.191406zm0 0"/><path d="m152.367188 136.015625c5.128906 0 9.285156-13.070313 9.285156-29.191406 0-16.125-4.15625-29.191407-9.285156-29.191407-5.128907 0-9.285157 13.066407-9.285157 29.191407 0 16.121093 4.15625 29.191406 9.285157 29.191406zm0 0"/><path d="m124.996094 105.261719c5.128906 0 9.285156-13.070313 9.285156-29.195313 0-16.121094-4.15625-29.191406-9.285156-29.191406s-9.289063 13.070312-9.289063 29.191406c0 16.125 4.160157 29.195313 9.289063 29.195313zm0 0"/><path d="m196.054688 158.445312c-2.660157 1.34375-6.296876 1.96875-10.035157 1.96875-.613281 0-1.226562-.019531-1.839843-.050781-.980469 12.671875-8.835938 25.375-20.324219 32.691407-8.917969 5.871093-20.417969 9.226562-34.152344 9.96875-1.652344.066406-3.273437.101562-4.867187.101562-15.953126 0-29.195313-3.378906-39.425782-10.070312-11.476562-7.308594-19.324218-20-20.308594-32.664063-.402343.015625-.804687.023437-1.207031.023437-3.738281 0-7.375-.625-10.035156-1.96875-1.011719-.507812-1.414063-1.738281-.90625-2.75.511719-1.003906 1.738281-1.410156 2.746094-.902343 5.710937 2.882812 17.472656 1.335937 20.546875-1.8125.785156-.808594 2.082031-.828125 2.886718-.039063.8125.789063.828126 2.082032.039063 2.894532-2.234375 2.289062-6.613281 3.800781-11.324219 4.347656 4.691406 17.097656 18.878906 29.40625 38.269532 33.074218 18.15625 3.390626 36.425781 1.898438 50.113281-4.089843 12.496093-5.394531 21.832031-16.1875 25.238281-29.058594-4.484375-.605469-8.589844-2.082031-10.726562-4.273437-.789063-.8125-.773438-2.105469.035156-2.894532.808594-.789062 2.101562-.769531 2.890625.039063 3.074219 3.148437 14.832031 4.695312 20.546875 1.8125 1.003906-.507813 2.234375-.101563 2.742187.902343.511719 1.011719.105469 2.242188-.902343 2.75zm0 0"/></g></svg>

<svg xmlns="http://www.w3.org/2000/svg" xmlns:xlink="http://www.w3.org/1999/xlink" width="250px" height="250px" viewBox="0 0 250 250" version="1.1">
<defs>
<linearGradient id="linear0" gradientUnits="userSpaceOnUse" x1="-192" y1="-160" x2="1024.069946" y2="1023.919983" gradientTransform="matrix(0.244141,0,0,0.244141,0,0)">
<stop offset="0" style="stop-color:rgb(48.235294%,55.686277%,33.725491%);stop-opacity:1;"/>
<stop offset="1" style="stop-color:rgb(73.725492%,78.039217%,64.313728%);stop-opacity:1;"/>
</linearGradient>
</defs>
<g id="surface1">
<rect x="0" y="0" width="250" height="250" style="fill:url(#linear0);stroke:none;"/>
<path style=" stroke:none;fill-rule:nonzero;fill:rgb(100%,100%,100%);fill-opacity:1;" d="M 97.625 136.015625 C 102.75 136.015625 106.910156 122.945312 106.910156 106.824219 C 106.910156 90.699219 102.75 77.632812 97.625 77.632812 C 92.496094 77.632812 88.335938 90.699219 88.335938 106.824219 C 88.335938 122.945312 92.496094 136.015625 97.625 136.015625 Z M 97.625 136.015625 "/>
<path style=" stroke:none;fill-rule:nonzero;fill:rgb(100%,100%,100%);fill-opacity:1;" d="M 152.367188 136.015625 C 157.496094 136.015625 161.652344 122.945312 161.652344 106.824219 C 161.652344 90.699219 157.496094 77.632812 152.367188 77.632812 C 147.238281 77.632812 143.082031 90.699219 143.082031 106.824219 C 143.082031 122.945312 147.238281 136.015625 152.367188 136.015625 Z M 152.367188 136.015625 "/>
<path style=" stroke:none;fill-rule:nonzero;fill:rgb(100%,100%,100%);fill-opacity:1;" d="M 124.996094 105.261719 C 130.125 105.261719 134.28125 92.191406 134.28125 76.066406 C 134.28125 59.945312 130.125 46.875 124.996094 46.875 C 119.867188 46.875 115.707031 59.945312 115.707031 76.066406 C 115.707031 92.191406 119.867188 105.261719 124.996094 105.261719 Z M 124.996094 105.261719 "/>
<path style=" stroke:none;fill-rule:nonzero;fill:rgb(100%,100%,100%);fill-opacity:1;" d="M 196.054688 158.445312 C 193.394531 159.789062 189.757812 160.414062 186.019531 160.414062 C 185.40625 160.414062 184.792969 160.394531 184.179688 160.363281 C 183.199219 173.035156 175.34375 185.738281 163.855469 193.054688 C 154.9375 198.925781 143.4375 202.28125 129.703125 203.023438 C 128.050781 203.089844 126.429688 203.125 124.835938 203.125 C 108.882812 203.125 95.640625 199.746094 85.410156 193.054688 C 73.933594 185.746094 66.085938 173.054688 65.101562 160.390625 C 64.699219 160.40625 64.296875 160.414062 63.894531 160.414062 C 60.15625 160.414062 56.519531 159.789062 53.859375 158.445312 C 52.847656 157.9375 52.445312 156.707031 52.953125 155.695312 C 53.464844 154.691406 54.691406 154.285156 55.699219 154.792969 C 61.410156 157.675781 73.171875 156.128906 76.246094 152.980469 C 77.03125 152.171875 78.328125 152.152344 79.132812 152.941406 C 79.945312 153.730469 79.960938 155.023438 79.171875 155.835938 C 76.9375 158.125 72.558594 159.636719 67.847656 160.183594 C 72.539062 177.28125 86.726562 189.589844 106.117188 193.257812 C 124.273438 196.648438 142.542969 195.15625 156.230469 189.167969 C 168.726562 183.773438 178.0625 172.980469 181.46875 160.109375 C 176.984375 159.503906 172.878906 158.027344 170.742188 155.835938 C 169.953125 155.023438 169.96875 153.730469 170.777344 152.941406 C 171.585938 152.152344 172.878906 152.171875 173.667969 152.980469 C 176.742188 156.128906 188.5 157.675781 194.214844 154.792969 C 195.21875 154.285156 196.449219 154.691406 196.957031 155.695312 C 197.46875 156.707031 197.0625 157.9375 196.054688 158.445312 Z M 196.054688 158.445312 "/>
</g>
</svg>
